X:111
T:Dear Tobacco
Z:Jack Campin, http://www.campin.me.uk/
F:Jack Campin's Nine-Note Tunebook
% last edit 03-02-2013
S:transposed from Greg Stephens' version for the Boat Band
M:C
L:1/8
Q:1/4=136
K:DDor
ADDF E/D/C/E/ D2|ADDB cBAG|ADDF E/D/C/D/ E2|C2CE GAGE:|
ABcA B/A/B/c/ d2|ABcA GAGE|ABcA B/A/B/c/ D2|C2CE GAGE:|

